local/share/icons/dracula-icons-main/scalable/mimetypes/application-postscript.svg

<?xml version="1.0" encoding="UTF-8"?>
<svg xmlns="http://www.w3.org/2000/svg" xmlns:xlink="http://www.w3.org/1999/xlink" width="64" height="64" viewBox="0 0 64 64">
<defs>
<filter id="filter-remove-color" x="0%" y="0%" width="100%" height="100%">
<feColorMatrix color-interpolation-filters="sRGB" values="0 0 0 0 1 0 0 0 0 1 0 0 0 0 1 0 0 0 1 0" />
</filter>
<mask id="mask-0">
<g filter="url(#filter-remove-color)">
<rect x="-6.4" y="-6.4" width="76.8" height="76.8" fill="rgb(0%, 0%, 0%)" fill-opacity="0.15"/>
</g>
</mask>
<linearGradient id="linear-pattern-0" gradientUnits="userSpaceOnUse" x1="49.570999" y1="52.714001" x2="51.714001" y2="54.856998" gradientTransform="matrix(0.617345, 0, 0, 0.617345, -18.167916, -19.050025)">
<stop offset="0" stop-color="rgb(0%, 0%, 0%)" stop-opacity="1"/>
<stop offset="1" stop-color="rgb(0%, 0%, 0%)" stop-opacity="0"/>
</linearGradient>
<clipPath id="clip-0">
<rect x="0" y="0" width="17" height="17"/>
</clipPath>
<g id="source-7080" clip-path="url(#clip-0)">
<path fill-rule="evenodd" fill="url(#linear-pattern-0)" d="M 14.816406 12.171875 L 11.113281 15.875 L 13.492188 15.875 C 14.226562 15.875 14.816406 15.285156 14.816406 14.550781 Z M 14.816406 12.171875 "/>
</g>
</defs>
<path fill-rule="nonzero" fill="rgb(92.156863%, 14.509804%, 24.313725%)" fill-opacity="1" d="M 3.441406 1.058594 L 13.492188 1.058594 C 14.222656 1.058594 14.816406 1.652344 14.816406 2.382812 L 14.816406 14.550781 C 14.816406 15.28125 14.222656 15.875 13.492188 15.875 L 3.441406 15.875 C 2.707031 15.875 2.117188 15.28125 2.117188 14.550781 L 2.117188 2.382812 C 2.117188 1.652344 2.707031 1.058594 3.441406 1.058594 Z M 3.441406 1.058594 "/>
<g mask="url(#mask-0)">
<use xlink:href="#source-7080"/>
</g>
<path fill-rule="evenodd" fill="rgb(100%, 100%, 100%)" fill-opacity="1" d="M 9.078125 4.804688 L 6.058594 8.386719 C 6.84375 8.511719 8.171875 9.507812 7.972656 10.828125 C 8.382812 9.847656 7.632812 8.652344 6.910156 8.167969 L 9.546875 5.019531 C 9.40625 4.917969 9.292969 4.867188 9.078125 4.804688 Z M 8.0625 5.054688 C 7.945312 5.054688 7.855469 5.074219 7.859375 5.074219 L 6.894531 6.179688 C 6.355469 6.210938 5.828125 6.246094 5.316406 6.296875 C 4.949219 6.335938 4.660156 6.625 4.609375 7.011719 C 4.535156 7.6875 4.496094 8.398438 4.496094 9.136719 C 4.496094 9.871094 4.535156 10.582031 4.609375 11.265625 C 4.660156 11.695312 4.949219 11.910156 5.316406 11.980469 C 6.324219 12.140625 7.785156 11.984375 7.785156 10.597656 C 7.785156 9.296875 5.65625 8.742188 4.929688 9.097656 L 8.292969 5.082031 C 8.214844 5.0625 8.132812 5.054688 8.0625 5.054688 Z M 10.28125 6.195312 C 10.28125 6.195312 8.386719 10.398438 8.203125 10.828125 C 7.921875 11.464844 7.535156 11.933594 6.976562 12.097656 C 7.46875 12.121094 7.957031 12.128906 8.460938 12.128906 C 9.570312 12.128906 10.625 12.074219 11.609375 11.980469 C 11.976562 11.941406 12.273438 11.644531 12.316406 11.265625 C 12.398438 10.582031 12.433594 9.871094 12.433594 9.136719 C 12.433594 8.398438 12.398438 7.6875 12.316406 7.011719 C 12.273438 6.625 11.976562 6.335938 11.609375 6.296875 C 11.179688 6.253906 10.734375 6.214844 10.28125 6.195312 Z M 10.28125 6.195312 "/>
</svg>

<svg width="64" height="64" version="1.1" viewBox="0 0 16.933 16.933" xmlns="http://www.w3.org/2000/svg">
 <defs>
  <linearGradient id="a" x1="49.571" x2="51.714" y1="52.714" y2="54.857" gradientTransform="matrix(2.3333,0,0,2.3333,-68.667,-72.001)" gradientUnits="userSpaceOnUse">
   <stop offset="0"/>
   <stop stop-opacity="0" offset="1"/>
  </linearGradient>
 </defs>
 <g transform="scale(.26458)">
  <rect x="8" y="4" width="48" height="56" ry="5" fill="#eb253e" style="paint-order:stroke fill markers"/>
  <path d="m56 46-14 14h9c2.77 0 5-2.23 5-5z" fill="url(#a)" fill-rule="evenodd" opacity=".15" stroke-width="8.8191" style="paint-order:stroke fill markers"/>
 </g>
 <path d="m9.079 4.806-3.0219 3.5789c0.78705 0.12623 2.1162 1.1213 1.9157 2.4429 0.40838-0.9801-0.34159-2.1756-1.0618-2.6582l2.6359-3.1482c-0.14118-0.10395-0.25253-0.15596-0.46785-0.21536zm-1.0166 0.24952c-0.11754 4e-4 -0.20572 0.01781-0.20108 0.01781l-0.96522 1.1063c-0.54203 0.0297-1.0692 0.06686-1.5816 0.11883-0.36383 0.03712-0.6534 0.32669-0.70538 0.7128-0.07425 0.67568-0.11135 1.3885-0.11135 2.1236 0 0.73508 0.0371 1.4479 0.11135 2.131 0.05198 0.43075 0.34156 0.64607 0.70538 0.7128 1.0098 0.16335 2.4726 0.0074 2.4726-1.381 0-1.2994-2.131-1.8563-2.8587-1.4999l3.3635-4.0169c-0.07796-0.01949-0.15904-0.02544-0.22956-0.02522zm2.2194 1.1389s-1.8932 4.2026-2.0789 4.6333c-0.28215 0.63855-0.66826 1.1063-1.2251 1.2697 0.49005 0.02228 0.98007 0.02966 1.485 0.02966 1.1062 0 2.1607-0.05196 3.1482-0.14849 0.36372-0.03712 0.66083-0.33412 0.70538-0.7128 0.08178-0.6831 0.11876-1.3959 0.11876-2.131 0-0.73508-0.03699-1.4479-0.11876-2.1236-0.04455-0.3861-0.34155-0.67567-0.70538-0.7128-0.43065-0.04455-0.87618-0.08173-1.3292-0.10401z" clip-rule="evenodd" enable-background="new" fill="#fff" fill-rule="evenodd" stroke-width=".066145"/>
</svg>
